X: 14262
T: By Moon light on the Green
%R: reel, Scots measure
B: James Oswald "The Caledonian Pocket Companion" v.1 b.4 p.26 #2 (and top 7 staves on p. 27)
S: https://ia800501.us.archive.org/18/items/caledonianpocket01rugg/caledonianpocket01rugg_bw.pdf
Z: 2020 John Chambers <jc:trillian.mit.edu>
M: C|
L: 1/8
K: D
|:\
D3F (DF)(AF) | D2d2 TB3c | (dB)(dB) (AF)(AF) | E2e2 Tc3c |\
d3d (ef)(ed) | (af)(ed) A3d | (Bd) (gf) (ec)(Ac) | {de}f2(ed) d4 :|
|:\
a2f2 (df)(af) | (ed)(dB) A2(ec) | dBAG (FA)(BA) | B2e2 Tc3c |\
(ce)(fe) (fg)(fe) | (Bd)(ed) (ef)(ed) | (AB)(=cB) (AF)(AE) | {E}F2D2 D4 :|
|:\
d3a fgaf | d2a2 d'3c' | b2(ab) (d'b)(af) | b2e2 e3f |\
d3e Tf2(ed) | edef b3c' | d'bd'b afae | f2d2 d4 :|
|:\
agfe dd'af | gece Acec | .d(BAG) (FG)A2 | .b(gfe) {d}c4 |\
dcde Tf2(ed) | Bded Te2(dB) | ABdB AFAE | {E}F2D2 D4 :|
